X: 7498
T: Coalminer's, The
R: reel
M: 4/4
K: Dmajor
|:D3 E DEFG|A2 FD EDEF|D2 ~D2 DEFA|dBAF EDFE|
D2 FE DEFG|A2 FD EDEF|D3 E DEFA|1 dBAF EFDB,:|2 dBAF DFBA||
|:~d3B ABdB|A2 FD EDDA|dcdB ABde|fedf eAde|
fd~d2 eBdB|A2 FD EDEF|D3 A DEFA|1 dBAF EDFE:|2 dBAF D4||

